src/svg/uf118-smile-o.svg

<!-- Generated by IcoMoon.io -->
<svg version="1.1" xmlns="http://www.w3.org/2000/svg" width="27" height="32" viewBox="0 0 27 32">
<path d="M20.25 19.196c-0.893 2.875-3.518 4.804-6.536 4.804s-5.643-1.929-6.536-4.804c-0.196-0.607 0.143-1.232 0.75-1.429 0.589-0.196 1.232 0.143 1.429 0.75 0.589 1.911 2.357 3.196 4.357 3.196s3.768-1.286 4.357-3.196c0.196-0.607 0.839-0.946 1.446-0.75 0.589 0.196 0.929 0.821 0.732 1.429zM11.429 11.429c0 1.268-1.018 2.286-2.286 2.286s-2.286-1.018-2.286-2.286 1.018-2.286 2.286-2.286 2.286 1.018 2.286 2.286zM20.571 11.429c0 1.268-1.018 2.286-2.286 2.286s-2.286-1.018-2.286-2.286 1.018-2.286 2.286-2.286 2.286 1.018 2.286 2.286zM25.143 16c0-6.304-5.125-11.429-11.429-11.429s-11.429 5.125-11.429 11.429 5.125 11.429 11.429 11.429 11.429-5.125 11.429-11.429zM27.429 16c0 7.571-6.143 13.714-13.714 13.714s-13.714-6.143-13.714-13.714 6.143-13.714 13.714-13.714 13.714 6.143 13.714 13.714z"></path>
</svg>

<svg xmlns="http://www.w3.org/2000/svg" width="27" height="32"><path d="M20.25 19.196C19.357 22.071 16.732 24 13.714 24s-5.643-1.929-6.536-4.804c-.196-.607.143-1.232.75-1.429.589-.196 1.232.143 1.429.75a4.543 4.543 0 0 0 4.357 3.196c2 0 3.768-1.286 4.357-3.196a1.15 1.15 0 0 1 1.446-.75c.589.196.929.821.732 1.429zm-8.821-7.767c0 1.268-1.018 2.286-2.286 2.286s-2.286-1.018-2.286-2.286 1.018-2.286 2.286-2.286 2.286 1.018 2.286 2.286zm9.142 0c0 1.268-1.018 2.286-2.286 2.286s-2.286-1.018-2.286-2.286 1.018-2.286 2.286-2.286 2.286 1.018 2.286 2.286zM25.143 16c0-6.304-5.125-11.429-11.429-11.429S2.285 9.696 2.285 16 7.41 27.429 13.714 27.429 25.143 22.304 25.143 16zm2.286 0c0 7.571-6.143 13.714-13.714 13.714S.001 23.571.001 16 6.144 2.286 13.715 2.286 27.429 8.429 27.429 16z"/></svg>
